;FLAVOR:Marlin
;TIME:1465
;Filament used: 1.6803m
;Layer height: 0.2
;Generated with Cura_SteamEngine 3.2.1
M190 S50
M104 S200
M109 S200
M82 ;absolute extrusion mode
G28 ;Home
G1 Z15.0 F6000 ;Move the platform down 15mm
;Prime the extruder
G92 E0
G1 F200 E3
G92 E0
;LAYER_COUNT:127
;LAYER:0
M107
G0 F2400 X100.238 Y99.46 Z0.3
;TYPE:WALL-INNER
G1 F1500 X100.474 Y99.498 E0.01193
G1 X100.674 Y99.551 E0.02225
G1 X100.952 Y99.658 E0.03711
G1 X101.132 Y99.746 E0.04711
G1 X101.347 Y99.879 E0.05972
G1 X101.593 Y100.07 E0.07526
G1 X101.821 Y100.283 E0.09082
G1 X102.031 Y100.524 E0.10677
G1 X102.244 Y100.819 E0.12492
G1 X102.402 Y101.078 E0.14006
G1 X102.577 Y101.418 E0.15914
G1 X102.759 Y101.851 E0.18257
G1 X102.914 Y102.319 E0.20717
G1 X103.031 Y102.776 E0.2307
G1 X103.116 Y103.205 E0.25252
G1 X103.188 Y103.724 E0.27866
G1 X103.23 Y104.317 E0.30832
G1 X103.236 Y104.787 E0.33177
G1 X103.216 Y105.294 E0.35708
G1 X103.177 Y105.73 E0.37892
G1 X103.106 Y106.223 E0.40377
G1 X103.006 Y106.707 E0.42843
G1 X102.939 Y106.964 E0.44168
G1 X102.797 Y107.409 E0.46498
G1 X102.679 Y107.716 E0.48139
G1 X102.537 Y108.032 E0.49868
G1 X102.326 Y108.418 E0.52062
G1 X102.119 Y108.727 E0.53918
G1 X101.991 Y108.89 E0.54952
G1 X101.78 Y109.124 E0.56524
G1 X101.55 Y109.335 E0.58081
G1 X101.392 Y109.456 E0.59074
G1 X101.161 Y109.603 E0.6044
G1 X101.023 Y109.676 E0.61219
G1 X100.828 Y109.763 E0.62284
G1 X100.61 Y109.837 E0.63433
G1 X100.387 Y109.887 E0.64573
G1 X100.155 Y109.914 E0.65738
G1 X99.999 Y109.921 E0.66517
G1 X99.768 Y109.907 E0.67672
G1 X99.49 Y109.86 E0.69078
G1 X99.312 Y109.814 E0.69996
G1 X99.007 Y109.693 E0.71633
G1 X98.794 Y109.579 E0.72838
G1 X98.584 Y109.439 E0.74097
G1 X98.322 Y109.224 E0.75788
G1 X98.129 Y109.03 E0.77153
G1 X97.935 Y108.798 E0.78662
G1 X97.793 Y108.603 E0.79866
G1 X97.606 Y108.301 E0.81638
G1 X97.402 Y107.9 E0.83882
G1 X97.269 Y107.592 E0.85556
G1 X97.122 Y107.171 E0.87781
G1 X96.956 Y106.538 E0.91046
G1 X96.872 Y106.094 E0.933
G1 X96.807 Y105.591 E0.9583
G1 X96.772 Y105.081 E0.98381
G1 X96.762 Y104.595 E1.00806
G1 X96.772 Y104.28 E1.02378
G1 X96.803 Y103.831 E1.04624
G1 X96.858 Y103.367 E1.06955
G1 X96.926 Y102.97 E1.08964
G1 X97.021 Y102.554 E1.11093
G1 X97.133 Y102.166 E1.13108
G1 X97.278 Y101.752 E1.15296
G1 X97.405 Y101.457 E1.16899
G1 X97.536 Y101.191 E1.18378
G1 X97.701 Y100.903 E1.20034
G1 X97.871 Y100.653 E1.21542
G1 X98.036 Y100.442 E1.22879
G1 X98.243 Y100.22 E1.24393
G1 X98.416 Y100.06 E1.25569
G1 X98.632 Y99.895 E1.26925
G1 X98.786 Y99.793 E1.27846
G1 X99.002 Y99.677 E1.29069
G1 X99.231 Y99.583 E1.30304
G1 X99.45 Y99.515 E1.31448
G1 X99.76 Y99.46 E1.33019
G1 X100.005 Y99.449 E1.34243
G1 X100.238 Y99.46 E1.35406
G0 F2400 X100.006 Y99.048
;TYPE:WALL-OUTER
G1 F1500 X100.277 Y99.061 E1.3676
G1 X100.555 Y99.106 E1.38165
G1 X100.796 Y99.169 E1.39408
G1 X101.112 Y99.291 E1.41098
G1 X101.324 Y99.395 E1.42276
G1 X101.577 Y99.551 E1.43759
G1 X101.858 Y99.769 E1.45533
G1 X102.104 Y100 E1.47217
G1 X102.344 Y100.275 E1.49038
G1 X102.575 Y100.595 E1.51007
G1 X102.758 Y100.895 E1.5276
G1 X102.936 Y101.242 E1.54706
G1 X103.137 Y101.718 E1.57283
G1 X103.294 Y102.193 E1.59779
G1 X103.421 Y102.687 E1.62324
G1 X103.511 Y103.141 E1.64633
G1 X103.586 Y103.686 E1.67378
G1 X103.63 Y104.3 E1.70449
G1 X103.636 Y104.803 E1.72958
G1 X103.616 Y105.31 E1.7549
G1 X103.573 Y105.787 E1.77879
G1 X103.5 Y106.295 E1.8044
G1 X103.397 Y106.792 E1.82972
G1 X103.323 Y107.077 E1.84441
G1 X103.171 Y107.552 E1.86929
G1 X103.048 Y107.873 E1.88644
G1 X102.898 Y108.205 E1.90462
G1 X102.669 Y108.624 E1.92844
G1 X102.446 Y108.957 E1.94843
G1 X102.288 Y109.158 E1.96119
G1 X102.065 Y109.405 E1.97779
G1 X101.804 Y109.644 E1.99545
G1 X101.621 Y109.784 E2.00694
G1 X101.362 Y109.95 E2.02229
G1 X101.199 Y110.036 E2.03148
G1 X100.983 Y110.132 E2.04328
G1 X100.717 Y110.223 E2.0573
G1 X100.453 Y110.282 E2.0708
G1 X100.176 Y110.314 E2.08471
G1 X100.003 Y110.322 E2.09335
G1 X99.723 Y110.305 E2.10735
G1 X99.406 Y110.251 E2.12339
G1 X99.186 Y110.194 E2.13473
G1 X98.835 Y110.055 E2.15356
G1 X98.59 Y109.924 E2.16742
G1 X98.347 Y109.762 E2.18199
G1 X98.056 Y109.523 E2.20078
G1 X97.832 Y109.298 E2.21662
G1 X97.617 Y109.04 E2.23337
G1 X97.46 Y108.825 E2.24666
G1 X97.256 Y108.496 E2.26597
G1 X97.045 Y108.081 E2.2892
G1 X96.894 Y107.732 E2.30817
G1 X96.744 Y107.303 E2.33084
G1 X96.698 Y107.146 E2.339
G1 X96.568 Y106.637 E2.36521
G1 X96.476 Y106.154 E2.38974
G1 X96.41 Y105.642 E2.4155
G1 X96.372 Y105.097 E2.44275
G1 X96.362 Y104.582 E2.46845
G1 X96.372 Y104.267 E2.48418
G1 X96.404 Y103.803 E2.50738
G1 X96.462 Y103.309 E2.5322
G1 X96.536 Y102.881 E2.55386
G1 X96.633 Y102.454 E2.57571
G1 X96.755 Y102.034 E2.59753
G1 X96.9 Y101.62 E2.61942
G1 X97.046 Y101.281 E2.63783
G1 X97.184 Y101 E2.65345
G1 X97.358 Y100.697 E2.67088
G1 X97.551 Y100.414 E2.68797
G1 X97.738 Y100.175 E2.70311
G1 X97.954 Y99.943 E2.71892
G1 X98.161 Y99.751 E2.73301
G1 X98.403 Y99.566 E2.74821
G1 X98.58 Y99.449 E2.75879
G1 X98.83 Y99.315 E2.77294
G1 X99.089 Y99.208 E2.78693
G1 X99.354 Y99.126 E2.80076
G1 X99.449 Y99.105 E2.80562
G1 X99.723 Y99.061 E2.81946
G1 X100.006 Y99.048 E2.8336
G0 F2400 X100.206 Y99.057
G0 X100.202 Y99.849
;TYPE:SKIN
G1 F1500 X100.392 Y99.879 E2.84319
G1 X100.551 Y99.921 E2.8514
G1 X100.795 Y100.016 E2.86446
G1 X100.945 Y100.089 E2.87278
G1 X101.126 Y100.201 E2.8834
G1 X101.33 Y100.359 E2.89628
G1 X101.545 Y100.559 E2.91093
G1 X101.727 Y100.768 E2.92475
G1 X101.915 Y101.028 E2.94076
G1 X102.055 Y101.257 E2.95415
G1 X102.227 Y101.591 E2.97289
G1 X102.394 Y101.988 E2.99438
G1 X102.536 Y102.416 E3.01688
G1 X102.653 Y102.873 E3.04041
G1 X102.73 Y103.258 E3.06
G1 X102.798 Y103.751 E3.08483
G1 X102.84 Y104.344 E3.11449
G1 X102.846 Y104.772 E3.13585
G1 X102.826 Y105.279 E3.16116
G1 X102.791 Y105.674 E3.18094
G1 X102.724 Y106.145 E3.20468
G1 X102.628 Y106.609 E3.22832
G1 X102.567 Y106.845 E3.24048
G1 X102.429 Y107.279 E3.2632
G1 X102.319 Y107.566 E3.27853
G1 X102.191 Y107.852 E3.29417
G1 X101.994 Y108.214 E3.31473
G1 X101.808 Y108.492 E3.33141
G1 X101.692 Y108.639 E3.34076
G1 X101.497 Y108.856 E3.35531
G1 X101.312 Y109.025 E3.36781
G1 X101.159 Y109.143 E3.37745
G1 X100.978 Y109.258 E3.38815
G1 X100.85 Y109.326 E3.39538
G1 X100.68 Y109.401 E3.40465
G1 X100.5 Y109.463 E3.41415
G1 X100.332 Y109.5 E3.42273
G1 X100.122 Y109.524 E3.43328
G1 X100.005 Y109.53 E3.43912
G1 X99.799 Y109.517 E3.44942
G1 X99.585 Y109.482 E3.46024
G1 X99.434 Y109.442 E3.46803
G1 X99.161 Y109.334 E3.48268
G1 X98.996 Y109.245 E3.49203
G1 X98.822 Y109.13 E3.50244
G1 X98.586 Y108.936 E3.51768
G1 X98.412 Y108.761 E3.52999
G1 X98.249 Y108.565 E3.54271
G1 X98.113 Y108.378 E3.55425
G1 X97.943 Y108.104 E3.57033
G1 X97.76 Y107.745 E3.59044
G1 X97.628 Y107.438 E3.60711
G1 X97.495 Y107.057 E3.62724
G1 X97.339 Y106.46 E3.65803
G1 X97.256 Y106.022 E3.68027
G1 X97.196 Y105.564 E3.70331
G1 X97.162 Y105.054 E3.72881
G1 X97.152 Y104.607 E3.75112
G1 X97.162 Y104.307 E3.76609
G1 X97.191 Y103.877 E3.7876
G1 X97.246 Y103.413 E3.81091
G1 X97.306 Y103.057 E3.82892
G1 X97.399 Y102.652 E3.84965
G1 X97.505 Y102.285 E3.86871
G1 X97.637 Y101.906 E3.88873
G1 X97.764 Y101.611 E3.90475
G1 X97.875 Y101.384 E3.91736
G1 X98.035 Y101.104 E3.93345
G1 X98.179 Y100.893 E3.94619
G1 X98.338 Y100.69 E3.95906
G1 X98.513 Y100.503 E3.97184
G1 X98.671 Y100.356 E3.9826
G1 X98.862 Y100.21 E3.9946
G1 X98.978 Y100.133 E4.00154
G1 X99.173 Y100.029 E4.01257
G1 X99.372 Y99.947 E4.02331
G1 X99.538 Y99.895 E4.03198
G1 X99.8 Y99.849 E4.04526
G1 X100.003 Y99.839 E4.0554
G1 X100.202 Y99.849 E4.06534
G0 F2400 X101.875 Y101.31
G1 F1500 X100.771 Y100.205 E4.14327
G1 X100.701 Y100.135
G0 F2400 X100.019 Y100.019
G1 F1500 X102.311 Y102.311 E4.30498
G1 X102.381 Y102.381
G0 F2400 X102.51 Y103.076
G1 F1500 X99.523 Y100.088 E4.51576
G1 X99.453 Y100.018
G0 F2400 X99.126 Y100.257
G1 F1500 X102.616 Y103.748 E4.76204
G1 X102.686 Y103.818
G0 F2400 X102.661 Y104.358
G1 F1500 X98.792 Y100.489 E5.03501
G1 X98.722 Y100.419
G0 F2400 X98.507 Y100.77
G1 F1500 X102.66 Y104.923 E5.32803
G1 X102.73 Y104.993
G0 F2400 X102.63 Y105.458
G1 F1500 X98.26 Y101.089 E5.63632
G1 X98.19 Y101.019
G0 F2400 X98.048 Y101.442
G1 F1500 X102.568 Y105.962 E5.95523
G1 X102.638 Y106.032
G0 F2400 X102.479 Y106.439
G1 F1500 X97.866 Y101.826 E6.28071
G1 X97.796 Y101.756
G0 F2400 X97.711 Y102.237
G1 F1500 X102.363 Y106.889 E6.60893
G1 X102.433 Y106.959
G0 F2400 X102.222 Y107.314
G1 F1500 X97.58 Y102.671 E6.93648
G1 X97.51 Y102.601
G0 F2400 X97.475 Y103.132
G1 F1500 X102.056 Y107.712 E7.25966
G1 X102.126 Y107.782
G0 F2400 X101.86 Y108.082
G1 F1500 X97.401 Y103.624 E7.57423
G1 X97.331 Y103.554
G0 F2400 X97.353 Y104.141
G1 F1500 X101.633 Y108.422 E7.87625
G1 X101.703 Y108.492
G0 F2400 X101.371 Y108.725
G1 F1500 X97.333 Y104.687 E8.16115
G1 X97.263 Y104.617
G0 F2400 X97.357 Y105.276
G1 F1500 X101.066 Y108.986 E8.42287
G1 X101.136 Y109.056
G0 F2400 X100.706 Y109.191
G1 F1500 X97.422 Y105.907 E8.65458
G1 X97.352 Y105.837
G0 F2400 X97.566 Y106.617
G1 F1500 X100.273 Y109.324 E8.84557
G1 X100.343 Y109.394
G0 F2400 X99.701 Y109.318
G1 F1500 X97.825 Y107.442 E8.97793
G1 X97.755 Y107.372
G1 F1500 E2.47793
G0 F2400 X103.012 Y102.78
G0 X104.271 Y102.531
G0 X106.071 Y101.376
G0 X107.288 Y101.786
G0 X110.223 Y99.559
G0 X110.234 Y99.46
;TYPE:WALL-INNER
G1 F1500 E8.97793
G1 X110.566 Y99.52 E8.99476
G1 X110.773 Y99.584 E9.00557
G1 X111.011 Y99.684 E9.01845
G1 X111.217 Y99.794 E9.0301
G1 X111.366 Y99.892 E9.039
G1 X111.574 Y100.053 E9.05212
G1 X111.792 Y100.254 E9.06692
G1 X111.956 Y100.432 E9.07899
G1 X112.133 Y100.66 E9.09339
G1 X112.304 Y100.911 E9.10855
G1 X112.462 Y101.189 E9.1245
G1 X112.613 Y101.499 E9.1417
G1 X112.723 Y101.76 E9.15583
G1 X112.866 Y102.16 E9.17703
G1 X112.978 Y102.547 E9.19713
G1 X113.074 Y102.971 E9.21881
G1 X113.141 Y103.365 E9.23875
G1 X113.199 Y103.839 E9.26258
G1 X113.23 Y104.366 E9.28892
G1 X113.237 Y104.587 E9.29995
G1 X113.228 Y105.104 E9.32574
G1 X113.195 Y105.579 E9.3495
G1 X113.144 Y105.974 E9.36937
G1 X113.037 Y106.574 E9.39978
G1 X112.915 Y107.047 E9.42415
G1 X112.736 Y107.577 E9.45205
G1 X112.594 Y107.911 E9.47016
G1 X112.395 Y108.302 E9.49205
G1 X112.207 Y108.605 E9.50984
G1 X112.056 Y108.811 E9.52258
G1 X111.878 Y109.023 E9.53639
G1 X111.662 Y109.239 E9.55163
G1 X111.456 Y109.409 E9.56496
G1 X111.203 Y109.581 E9.58022
G1 X110.985 Y109.696 E9.59252
G1 X110.708 Y109.806 E9.60739
G1 X110.446 Y109.875 E9.6209
G1 X110.24 Y109.908 E9.63131
G1 X109.993 Y109.919 E9.64365
G1 X109.794 Y109.909 E9.65359
G1 X109.612 Y109.887 E9.66273
G1 X109.397 Y109.839 E9.67372
G1 X109.24 Y109.786 E9.68199
G1 X109.036 Y109.705 E9.69294
G1 X108.83 Y109.6 E9.70448
G1 X108.614 Y109.461 E9.71729
G1 X108.412 Y109.303 E9.73009
G1 X108.212 Y109.119 E9.74365
G1 X108.03 Y108.915 E9.75728
G1 X107.878 Y108.721 E9.76958
G1 X107.631 Y108.345 E9.79202
G1 X107.456 Y108.018 E9.81053
G1 X107.312 Y107.698 E9.82803
G1 X107.196 Y107.39 E9.84445
G1 X107.064 Y106.972 E9.86632
G1 X106.981 Y106.653 E9.88277
G1 X106.897 Y106.235 E9.90404
G1 X106.822 Y105.729 E9.92956
G1 X106.783 Y105.296 E9.95125
G1 X106.763 Y104.798 E9.97612
G1 X106.769 Y104.32 E9.99996
G1 X106.812 Y103.739 E10.02903
G1 X106.882 Y103.215 E10.0554
G1 X106.973 Y102.746 E10.07924
G1 X107.082 Y102.336 E10.10041
G1 X107.27 Y101.779 E10.12973
G1 X107.393 Y101.485 E10.14563
G1 X107.593 Y101.084 E10.16799
G1 X107.757 Y100.82 E10.1835
G1 X108.013 Y100.475 E10.20493
G1 X108.194 Y100.269 E10.21861
G1 X108.403 Y100.073 E10.2329
G1 X108.615 Y99.906 E10.24637
G1 X108.864 Y99.75 E10.26103
G1 X109.096 Y99.636 E10.27392
G1 X109.326 Y99.55 E10.28617
G1 X109.524 Y99.498 E10.29639
G1 X109.766 Y99.46 E10.30861
G1 X109.997 Y99.449 E10.32015
G1 X110.234 Y99.46 E10.33198
G0 F2400 X110.223 Y99.559
G0 X110.426 Y109.778
G0 X110.528 Y110.267
;TYPE:WALL-OUTER
G1 F1500 X110.277 Y110.307 E10.34466
G1 X110.001 Y110.32 E10.35845
G1 X109.755 Y110.307 E10.37074
G1 X109.547 Y110.282 E10.38119
G1 X109.288 Y110.224 E10.39443
G1 X109.091 Y110.158 E10.4048
G1 X108.875 Y110.072 E10.4164
G1 X108.631 Y109.948 E10.43005
G1 X108.388 Y109.792 E10.44446
G1 X108.149 Y109.604 E10.45963
G1 X107.93 Y109.403 E10.47446
G1 X107.721 Y109.169 E10.49011
G1 X107.551 Y108.951 E10.5039
G1 X107.284 Y108.545 E10.52815
G1 X107.103 Y108.207 E10.54728
G1 X106.938 Y107.842 E10.56726
G1 X106.821 Y107.53 E10.58388
G1 X106.678 Y107.077 E10.60758
G1 X106.591 Y106.74 E10.62495
G1 X106.501 Y106.295 E10.6476
G1 X106.426 Y105.788 E10.67317
G1 X106.383 Y105.312 E10.69701
G1 X106.363 Y104.814 E10.72188
G1 X106.369 Y104.301 E10.74747
G1 X106.415 Y103.686 E10.77824
G1 X106.486 Y103.151 E10.80517
G1 X106.58 Y102.669 E10.82967
G1 X106.703 Y102.208 E10.85347
G1 X106.896 Y101.635 E10.88364
G1 X107.024 Y101.33 E10.90014
G1 X107.245 Y100.886 E10.92488
G1 X107.422 Y100.6 E10.94166
G1 X107.702 Y100.223 E10.96509
G1 X107.907 Y99.99 E10.98057
G1 X108.142 Y99.769 E10.99667
G1 X108.384 Y99.58 E11.01199
G1 X108.671 Y99.399 E11.02892
G1 X108.936 Y99.269 E11.04364
G1 X109.205 Y99.168 E11.05798
G1 X109.444 Y99.106 E11.0703
G1 X109.731 Y99.061 E11.08479
G1 X109.995 Y99.048 E11.09798
G1 X110.279 Y99.061 E11.11216
G1 X110.66 Y99.13 E11.13148
G1 X110.907 Y99.207 E11.14438
G1 X111.18 Y99.321 E11.15914
G1 X111.42 Y99.45 E11.17274
G1 X111.603 Y99.57 E11.18366
G1 X111.839 Y99.753 E11.19856
G1 X112.071 Y99.966 E11.21427
G1 X112.266 Y100.179 E11.22868
G1 X112.449 Y100.414 E11.24353
G1 X112.643 Y100.698 E11.26069
G1 X112.815 Y101.001 E11.27808
G1 X112.978 Y101.334 E11.29657
G1 X113.1 Y101.626 E11.31236
G1 X113.246 Y102.035 E11.33403
G1 X113.365 Y102.444 E11.35528
G1 X113.464 Y102.883 E11.37773
G1 X113.538 Y103.316 E11.39965
G1 X113.596 Y103.79 E11.42347
G1 X113.63 Y104.353 E11.45161
G1 X113.637 Y104.574 E11.46264
G1 X113.628 Y105.12 E11.48989
G1 X113.592 Y105.63 E11.51539
G1 X113.54 Y106.033 E11.53567
G1 X113.429 Y106.653 E11.56709
G1 X113.297 Y107.165 E11.59347
G1 X113.11 Y107.72 E11.62269
G1 X112.956 Y108.082 E11.64231
G1 X112.745 Y108.497 E11.66554
G1 X112.536 Y108.834 E11.68532
G1 X112.379 Y109.048 E11.69857
G1 X112.168 Y109.299 E11.71492
G1 X111.933 Y109.534 E11.73151
G1 X111.694 Y109.731 E11.74696
G1 X111.409 Y109.925 E11.76416
G1 X111.155 Y110.059 E11.77849
G1 X110.916 Y110.158 E11.79139
G1 X110.814 Y110.192 E11.79676
G1 X110.528 Y110.267 E11.81151
G0 F2400 X110.331 Y110.298
G0 X110.206 Y109.518
;TYPE:SKIN
G1 F1500 X109.996 Y109.528 E11.822
G1 X109.668 Y109.501 E11.83841
G1 X109.5 Y109.462 E11.84702
G1 X109.374 Y109.42 E11.85365
G1 X109.202 Y109.351 E11.86289
G1 X109.021 Y109.259 E11.87302
G1 X108.844 Y109.145 E11.88352
G1 X108.652 Y108.995 E11.89568
G1 X108.491 Y108.848 E11.90656
G1 X108.321 Y108.656 E11.91935
G1 X108.202 Y108.504 E11.92898
G1 X107.962 Y108.139 E11.95078
G1 X107.804 Y107.842 E11.96756
G1 X107.672 Y107.549 E11.98359
G1 X107.565 Y107.263 E11.99883
G1 X107.439 Y106.864 E12.0197
G1 X107.359 Y106.555 E12.03563
G1 X107.283 Y106.178 E12.05481
G1 X107.208 Y105.672 E12.08033
G1 X107.173 Y105.28 E12.09997
G1 X107.153 Y104.803 E12.12379
G1 X107.159 Y104.325 E12.14764
G1 X107.198 Y103.79 E12.1744
G1 X107.265 Y103.289 E12.19962
G1 X107.35 Y102.846 E12.22212
G1 X107.459 Y102.436 E12.24329
G1 X107.635 Y101.917 E12.27063
G1 X107.748 Y101.647 E12.28523
G1 X107.931 Y101.282 E12.3056
G1 X108.083 Y101.036 E12.32003
G1 X108.317 Y100.72 E12.33964
G1 X108.474 Y100.542 E12.35149
G1 X108.665 Y100.363 E12.36454
G1 X108.842 Y100.224 E12.37577
G1 X109.041 Y100.098 E12.38752
G1 X109.261 Y99.991 E12.39973
G1 X109.445 Y99.921 E12.40955
G1 X109.594 Y99.883 E12.41722
G1 X109.809 Y99.848 E12.42809
G1 X109.998 Y99.839 E12.43753
G1 X110.191 Y99.848 E12.44717
G1 X110.473 Y99.899 E12.46147
G1 X110.648 Y99.953 E12.4706
G1 X110.842 Y100.035 E12.48111
G1 X111.017 Y100.129 E12.49102
G1 X111.146 Y100.214 E12.49873
G1 X111.309 Y100.34 E12.50901
G1 X111.515 Y100.531 E12.52302
G1 X111.659 Y100.686 E12.53358
G1 X111.825 Y100.9 E12.54709
G1 X111.972 Y101.117 E12.56017
G1 X112.111 Y101.36 E12.57413
G1 X112.258 Y101.661 E12.59084
G1 X112.36 Y101.902 E12.6039
G1 X112.495 Y102.28 E12.62393
G1 X112.598 Y102.633 E12.64227
G1 X112.69 Y103.037 E12.66294
G1 X112.753 Y103.412 E12.68191
