;FLAVOR:Marlin
;TIME:1467
;Filament used: 1.68068m
;Layer height: 0.2
;Generated with Cura_SteamEngine 3.2.1
M190 S50
M104 S200
M109 S200
M82 ;absolute extrusion mode
G28 ;Home
G1 Z15.0 F6000 ;Move the platform down 15mm
;Prime the extruder
G92 E0
G1 F200 E3
G92 E0
;LAYER_COUNT:127
;LAYER:0
M107
G0 F2400 X99.238 Y91.46 Z0.3
;TYPE:WALL-INNER
G1 F1500 X99.474 Y91.498 E0.01193
G1 X99.674 Y91.551 E0.02225
G1 X99.952 Y91.658 E0.03711
G1 X100.132 Y91.746 E0.04711
G1 X100.347 Y91.879 E0.05972
G1 X100.593 Y92.07 E0.07526
G1 X100.821 Y92.283 E0.09082
G1 X101.031 Y92.524 E0.10677
G1 X101.244 Y92.819 E0.12492
G1 X101.402 Y93.078 E0.14006
G1 X101.577 Y93.418 E0.15914
G1 X101.759 Y93.851 E0.18257
G1 X101.914 Y94.319 E0.20717
G1 X102.031 Y94.776 E0.2307
G1 X102.117 Y95.207 E0.25263
G1 X102.189 Y95.736 E0.27926
G1 X102.232 Y96.357 E0.31032
G1 X102.237 Y96.803 E0.33257
G1 X102.216 Y97.293 E0.35704
G1 X102.177 Y97.73 E0.37893
G1 X102.106 Y98.223 E0.40378
G1 X102.009 Y98.691 E0.42762
G1 X101.938 Y98.966 E0.44179
G1 X101.797 Y99.409 E0.46499
G1 X101.674 Y99.73 E0.48214
G1 X101.546 Y100.017 E0.49782
G1 X101.368 Y100.344 E0.51639
G1 X101.115 Y100.729 E0.53937
G1 X100.983 Y100.899 E0.55011
G1 X100.78 Y101.124 E0.56523
G1 X100.55 Y101.335 E0.5808
G1 X100.392 Y101.456 E0.59073
G1 X100.161 Y101.603 E0.60439
G1 X100.023 Y101.676 E0.61218
G1 X99.828 Y101.763 E0.62283
G1 X99.61 Y101.837 E0.63432
G1 X99.387 Y101.887 E0.64572
G1 X99.155 Y101.914 E0.65737
G1 X98.999 Y101.921 E0.66516
G1 X98.768 Y101.907 E0.67671
G1 X98.49 Y101.86 E0.69078
G1 X98.312 Y101.814 E0.69995
G1 X98.007 Y101.693 E0.71632
G1 X97.794 Y101.579 E0.72837
G1 X97.585 Y101.439 E0.74092
G1 X97.326 Y101.227 E0.75762
G1 X97.119 Y101.019 E0.77226
G1 X96.935 Y100.798 E0.78661
G1 X96.793 Y100.603 E0.79864
G1 X96.606 Y100.301 E0.81636
G1 X96.402 Y99.9 E0.83881
G1 X96.269 Y99.592 E0.85555
G1 X96.122 Y99.171 E0.87779
G1 X95.956 Y98.538 E0.91044
G1 X95.872 Y98.094 E0.93299
G1 X95.807 Y97.591 E0.95829
G1 X95.772 Y97.081 E0.98379
G1 X95.762 Y96.595 E1.00805
G1 X95.772 Y96.28 E1.02377
G1 X95.803 Y95.831 E1.04622
G1 X95.858 Y95.367 E1.06953
G1 X95.926 Y94.97 E1.08963
G1 X96.021 Y94.554 E1.11092
G1 X96.133 Y94.166 E1.13107
G1 X96.278 Y93.752 E1.15295
G1 X96.405 Y93.457 E1.16897
G1 X96.531 Y93.2 E1.18325
G1 X96.707 Y92.895 E1.20082
G1 X96.878 Y92.644 E1.21597
G1 X97.031 Y92.45 E1.2283
G1 X97.237 Y92.228 E1.24341
G1 X97.414 Y92.064 E1.25545
G1 X97.639 Y91.89 E1.26964
G1 X97.78 Y91.796 E1.27809
G1 X98.004 Y91.677 E1.29075
G1 X98.224 Y91.584 E1.30266
G1 X98.442 Y91.517 E1.31404
G1 X98.757 Y91.461 E1.33
G1 X99.006 Y91.449 E1.34244
G1 X99.238 Y91.46 E1.35403
G0 F2400 X99.277 Y91.061
;TYPE:WALL-OUTER
G1 F1500 X99.555 Y91.106 E1.36808
G1 X99.796 Y91.169 E1.38051
G1 X100.112 Y91.291 E1.39741
G1 X100.324 Y91.395 E1.40919
G1 X100.577 Y91.551 E1.42402
G1 X100.858 Y91.769 E1.44176
G1 X101.104 Y92 E1.45859
G1 X101.344 Y92.275 E1.4768
G1 X101.575 Y92.595 E1.49649
G1 X101.758 Y92.895 E1.51403
G1 X101.936 Y93.242 E1.53348
G1 X102.137 Y93.718 E1.55926
G1 X102.294 Y94.193 E1.58422
G1 X102.421 Y94.687 E1.60967
G1 X102.511 Y95.141 E1.63276
G1 X102.587 Y95.7 E1.6609
G1 X102.632 Y96.342 E1.69301
G1 X102.637 Y96.82 E1.71686
G1 X102.616 Y97.31 E1.74133
G1 X102.573 Y97.787 E1.76522
G1 X102.5 Y98.295 E1.79083
G1 X102.401 Y98.772 E1.81513
G1 X102.322 Y99.077 E1.83085
G1 X102.171 Y99.552 E1.85572
G1 X102.048 Y99.873 E1.87287
G1 X101.898 Y100.208 E1.89118
G1 X101.715 Y100.545 E1.91031
G1 X101.441 Y100.961 E1.93516
G1 X101.288 Y101.158 E1.94761
G1 X101.065 Y101.405 E1.96421
G1 X100.804 Y101.644 E1.98187
G1 X100.621 Y101.784 E1.99336
G1 X100.362 Y101.95 E2.00871
G1 X100.199 Y102.036 E2.0179
G1 X99.983 Y102.132 E2.0297
G1 X99.717 Y102.223 E2.04372
G1 X99.453 Y102.282 E2.05722
G1 X99.176 Y102.314 E2.07113
G1 X99.003 Y102.322 E2.07977
G1 X98.723 Y102.305 E2.09376
G1 X98.406 Y102.251 E2.10981
G1 X98.186 Y102.194 E2.12115
G1 X97.835 Y102.055 E2.13998
G1 X97.59 Y101.924 E2.15384
G1 X97.347 Y101.762 E2.16841
G1 X97.055 Y101.523 E2.18724
G1 X96.827 Y101.292 E2.20343
G1 X96.617 Y101.04 E2.2198
G1 X96.46 Y100.825 E2.23308
G1 X96.256 Y100.496 E2.25239
G1 X96.045 Y100.081 E2.27562
G1 X95.894 Y99.732 E2.29459
G1 X95.744 Y99.303 E2.31726
G1 X95.698 Y99.146 E2.32542
G1 X95.568 Y98.637 E2.35163
G1 X95.476 Y98.154 E2.37616
G1 X95.41 Y97.642 E2.40192
G1 X95.372 Y97.097 E2.42917
G1 X95.362 Y96.582 E2.45487
G1 X95.372 Y96.267 E2.4706
G1 X95.404 Y95.803 E2.4938
G1 X95.462 Y95.309 E2.51862
G1 X95.536 Y94.881 E2.54029
G1 X95.633 Y94.454 E2.56213
G1 X95.755 Y94.034 E2.58395
G1 X95.9 Y93.62 E2.60584
G1 X96.046 Y93.281 E2.62425
G1 X96.184 Y93 E2.63987
G1 X96.363 Y92.689 E2.65777
G1 X96.554 Y92.408 E2.67472
G1 X96.724 Y92.193 E2.6884
G1 X96.955 Y91.944 E2.70534
G1 X97.161 Y91.754 E2.71932
G1 X97.4 Y91.568 E2.73443
G1 X97.576 Y91.452 E2.74495
G1 X97.83 Y91.317 E2.7593
G1 X98.088 Y91.208 E2.77327
G1 X98.35 Y91.127 E2.78695
G1 X98.714 Y91.062 E2.8054
G1 X99.006 Y91.048 E2.81999
G1 X99.277 Y91.061 E2.83352
G0 F2400 X99.474 Y91.093
G0 X99.392 Y91.879
;TYPE:SKIN
G1 F1500 X99.551 Y91.921 E2.84173
G1 X99.795 Y92.016 E2.85479
G1 X99.945 Y92.089 E2.86311
G1 X100.121 Y92.198 E2.87344
G1 X100.345 Y92.372 E2.88759
G1 X100.54 Y92.554 E2.9009
G1 X100.727 Y92.768 E2.91508
G1 X100.915 Y93.028 E2.93109
G1 X101.055 Y93.257 E2.94448
G1 X101.227 Y93.591 E2.96322
G1 X101.394 Y93.988 E2.98471
G1 X101.536 Y94.416 E3.0072
G1 X101.653 Y94.873 E3.03074
G1 X101.731 Y95.26 E3.05044
G1 X101.799 Y95.763 E3.07576
G1 X101.842 Y96.384 E3.10681
G1 X101.847 Y96.786 E3.12687
G1 X101.826 Y97.276 E3.15134
G1 X101.791 Y97.674 E3.17127
G1 X101.724 Y98.143 E3.19491
G1 X101.631 Y98.594 E3.21788
G1 X101.566 Y98.848 E3.23096
G1 X101.43 Y99.277 E3.25342
G1 X101.313 Y99.581 E3.26967
G1 X101.199 Y99.838 E3.28369
G1 X101.029 Y100.15 E3.30142
G1 X100.807 Y100.489 E3.32164
G1 X100.675 Y100.659 E3.33237
G1 X100.503 Y100.851 E3.34524
G1 X100.312 Y101.025 E3.35813
G1 X100.159 Y101.143 E3.36777
G1 X99.978 Y101.258 E3.37846
G1 X99.85 Y101.326 E3.3857
G1 X99.68 Y101.401 E3.39497
G1 X99.5 Y101.463 E3.40446
G1 X99.332 Y101.5 E3.41305
G1 X99.122 Y101.524 E3.42359
G1 X99.005 Y101.53 E3.42944
G1 X98.799 Y101.517 E3.43973
G1 X98.585 Y101.482 E3.45055
G1 X98.434 Y101.442 E3.45834
G1 X98.164 Y101.335 E3.47283
G1 X97.99 Y101.243 E3.48265
G1 X97.826 Y101.132 E3.49253
G1 X97.59 Y100.939 E3.50774
G1 X97.403 Y100.751 E3.52097
G1 X97.249 Y100.565 E3.53302
G1 X97.113 Y100.378 E3.54456
G1 X96.943 Y100.104 E3.56064
G1 X96.76 Y99.745 E3.58075
G1 X96.628 Y99.438 E3.59742
G1 X96.495 Y99.057 E3.61755
G1 X96.339 Y98.46 E3.64834
G1 X96.256 Y98.022 E3.67058
G1 X96.196 Y97.564 E3.69362
G1 X96.162 Y97.054 E3.71912
G1 X96.152 Y96.607 E3.74143
G1 X96.162 Y96.307 E3.7564
G1 X96.191 Y95.877 E3.77791
G1 X96.246 Y95.413 E3.80122
G1 X96.306 Y95.057 E3.81923
G1 X96.399 Y94.652 E3.83996
G1 X96.505 Y94.285 E3.85902
G1 X96.637 Y93.906 E3.87904
G1 X96.756 Y93.629 E3.89408
G1 X96.882 Y93.372 E3.90836
G1 X97.037 Y93.103 E3.92385
G1 X97.192 Y92.876 E3.93756
G1 X97.331 Y92.7 E3.94875
G1 X97.513 Y92.504 E3.9621
G1 X97.673 Y92.356 E3.97297
G1 X97.861 Y92.211 E3.98482
G1 X97.975 Y92.135 E3.99165
G1 X98.179 Y92.026 E4.00319
G1 X98.353 Y91.952 E4.01262
G1 X98.536 Y91.897 E4.02216
G1 X98.798 Y91.849 E4.03545
G1 X99.006 Y91.839 E4.04583
G1 X99.202 Y91.849 E4.05563
G1 X99.392 Y91.879 E4.06522
G0 F2400 X99.429 Y92.075
G1 F1500 X101.093 Y93.739 E4.18263
G1 X101.163 Y93.809
G0 F2400 X101.399 Y94.61
G1 F1500 X98.817 Y92.029 E4.36477
G1 X98.747 Y91.959
G0 F2400 X98.364 Y92.142
G1 F1500 X101.56 Y95.337 E4.59023
G1 X101.63 Y95.407
G0 F2400 X101.632 Y95.975
G1 F1500 X97.995 Y92.338 E4.84684
G1 X97.925 Y92.268
G0 F2400 X97.683 Y92.592
G1 F1500 X101.663 Y96.572 E5.12765
G1 X101.733 Y96.642
G0 F2400 X101.651 Y97.126
G1 F1500 X97.411 Y92.886 E5.4268
G1 X97.341 Y92.816
G0 F2400 X97.176 Y93.217
G1 F1500 X101.611 Y97.652 E5.73971
G1 X101.681 Y97.722
G0 F2400 X101.539 Y98.145
G1 F1500 X96.978 Y93.584 E6.06152
G1 X96.908 Y93.514
G0 F2400 X96.802 Y93.973
G1 F1500 X101.44 Y98.611 E6.38875
G1 X101.51 Y98.681
G0 F2400 X101.312 Y99.05
G1 F1500 X96.659 Y94.396 E6.71708
G1 X96.589 Y94.326
G0 F2400 X96.539 Y94.842
G1 F1500 X101.163 Y99.466 E7.04333
G1 X101.233 Y99.536
G0 F2400 X100.984 Y99.853
G1 F1500 X96.444 Y95.313 E7.36365
G1 X96.374 Y95.243
G0 F2400 X96.379 Y95.813
G1 F1500 X100.774 Y100.209 E7.67378
G1 X100.844 Y100.279
G0 F2400 X100.539 Y100.539
G1 F1500 X96.34 Y96.34 E7.97004
G1 X96.27 Y96.27
G0 F2400 X96.339 Y96.904
G1 F1500 X100.26 Y100.826 E8.24672
G1 X100.33 Y100.896
G0 F2400 X99.937 Y101.068
G1 F1500 X96.372 Y97.503 E8.49825
G1 X96.302 Y97.433
G0 F2400 X96.465 Y98.162
G1 F1500 X99.555 Y101.252 E8.71627
G1 X99.625 Y101.322
G0 F2400 X99.081 Y101.343
G1 F1500 X96.641 Y98.904 E8.88839
G1 X96.571 Y98.834
G0 F2400 X97.01 Y99.838
G1 F1500 X98.408 Y101.236 E8.98703
G1 X98.478 Y101.306
G1 F1500 E2.48703
G0 F2400 X102.197 Y97.292
G0 X103.481 Y97.346
G0 X104.627 Y95.063
G0 X105.899 Y95.235
G0 X109.225 Y91.559
G0 X109.236 Y91.46
;TYPE:WALL-INNER
G1 F1500 E8.98703
G1 X109.562 Y91.518 E9.00355
G1 X109.778 Y91.586 E9.01484
G1 X110.006 Y91.681 E9.02717
G1 X110.224 Y91.8 E9.03956
G1 X110.365 Y91.892 E9.04796
G1 X110.574 Y92.053 E9.06112
G1 X110.793 Y92.255 E9.07598
G1 X110.956 Y92.432 E9.08799
G1 X111.133 Y92.66 E9.10239
G1 X111.298 Y92.901 E9.11696
G1 X111.463 Y93.187 E9.13343
G1 X111.613 Y93.498 E9.15066
G1 X111.723 Y93.76 E9.16484
G1 X111.866 Y94.16 E9.18603
G1 X111.978 Y94.547 E9.20613
G1 X112.074 Y94.971 E9.22782
G1 X112.141 Y95.365 E9.24776
G1 X112.199 Y95.839 E9.27158
G1 X112.23 Y96.366 E9.29792
G1 X112.237 Y96.587 E9.30895
G1 X112.228 Y97.104 E9.33475
G1 X112.195 Y97.579 E9.3585
G1 X112.144 Y97.974 E9.37837
G1 X112.037 Y98.574 E9.40878
G1 X111.915 Y99.047 E9.43315
G1 X111.736 Y99.577 E9.46106
G1 X111.594 Y99.911 E9.47916
G1 X111.398 Y100.297 E9.50076
G1 X111.207 Y100.605 E9.51884
G1 X111.063 Y100.801 E9.53098
G1 X110.877 Y101.021 E9.54535
G1 X110.659 Y101.241 E9.5608
G1 X110.457 Y101.408 E9.57388
G1 X110.203 Y101.581 E9.58921
G1 X109.985 Y101.696 E9.60151
G1 X109.712 Y101.805 E9.61617
G1 X109.451 Y101.874 E9.62964
G1 X109.231 Y101.909 E9.64075
G1 X108.988 Y101.92 E9.65289
G1 X108.793 Y101.91 E9.66263
G1 X108.612 Y101.888 E9.67173
G1 X108.383 Y101.835 E9.68346
G1 X108.17 Y101.762 E9.69469
G1 X107.965 Y101.669 E9.70592
G1 X107.838 Y101.603 E9.71306
G1 X107.612 Y101.458 E9.72646
G1 X107.445 Y101.33 E9.73695
G1 X107.217 Y101.121 E9.75238
G1 X107.012 Y100.896 E9.76757
G1 X106.851 Y100.684 E9.78085
G1 X106.606 Y100.305 E9.80337
G1 X106.44 Y99.984 E9.8214
G1 X106.311 Y99.695 E9.83719
G1 X106.201 Y99.406 E9.85261
G1 X106.059 Y98.955 E9.8762
G1 X105.983 Y98.656 E9.89159
G1 X105.89 Y98.201 E9.91476
G1 X105.825 Y97.749 E9.93755
G1 X105.786 Y97.325 E9.95879
G1 X105.763 Y96.797 E9.98516
G1 X105.769 Y96.32 E10.00895
G1 X105.814 Y95.717 E10.03912
G1 X105.88 Y95.232 E10.06354
G1 X105.972 Y94.76 E10.08753
G1 X106.09 Y94.303 E10.11108
G1 X106.239 Y93.854 E10.13468
G1 X106.388 Y93.497 E10.15398
G1 X106.589 Y93.095 E10.17641
G1 X106.763 Y92.81 E10.19306
G1 X106.973 Y92.521 E10.21089
G1 X107.202 Y92.261 E10.22817
G1 X107.403 Y92.073 E10.2419
G1 X107.615 Y91.906 E10.25537
G1 X107.864 Y91.75 E10.27003
G1 X108.096 Y91.636 E10.28292
G1 X108.318 Y91.552 E10.29477
G1 X108.528 Y91.498 E10.30558
G1 X108.766 Y91.46 E10.31761
G1 X108.997 Y91.449 E10.32915
G1 X109.236 Y91.46 E10.34108
G0 F2400 X109.225 Y91.559
G0 X109.431 Y101.777
G0 X109.536 Y102.265
;TYPE:WALL-OUTER
G1 F1500 X109.268 Y102.308 E10.35462
G1 X108.996 Y102.321 E10.36821
G1 X108.751 Y102.308 E10.38045
G1 X108.542 Y102.282 E10.39096
G1 X108.276 Y102.221 E10.40457
G1 X108.019 Y102.133 E10.41812
G1 X107.793 Y102.03 E10.43052
G1 X107.639 Y101.95 E10.43917
G1 X107.379 Y101.784 E10.45456
G1 X107.188 Y101.637 E10.46659
G1 X106.934 Y101.404 E10.48378
G1 X106.705 Y101.153 E10.50073
G1 X106.518 Y100.906 E10.51619
G1 X106.328 Y100.619 E10.53336
G1 X106.253 Y100.492 E10.54072
G1 X106.08 Y100.159 E10.55944
G1 X105.939 Y99.842 E10.57675
G1 X105.827 Y99.548 E10.59245
G1 X105.671 Y99.054 E10.61829
G1 X105.595 Y98.755 E10.63369
G1 X105.496 Y98.27 E10.65838
G1 X105.429 Y97.806 E10.68177
G1 X105.386 Y97.342 E10.70502
G1 X105.363 Y96.814 E10.73139
G1 X105.369 Y96.301 E10.75698
G1 X105.415 Y95.687 E10.7877
G1 X105.487 Y95.155 E10.81448
G1 X105.579 Y94.683 E10.83847
G1 X105.71 Y94.177 E10.86455
G1 X105.862 Y93.72 E10.88858
G1 X106.027 Y93.325 E10.90994
G1 X106.239 Y92.901 E10.93359
G1 X106.429 Y92.589 E10.95181
G1 X106.66 Y92.27 E10.97146
G1 X106.907 Y91.99 E10.99009
G1 X107.142 Y91.769 E11.00618
G1 X107.384 Y91.58 E11.0215
G1 X107.671 Y91.399 E11.03843
G1 X107.936 Y91.269 E11.05316
G1 X108.199 Y91.17 E11.06718
G1 X108.445 Y91.106 E11.07986
G1 X108.731 Y91.061 E11.0943
G1 X108.995 Y91.048 E11.10749
G1 X109.28 Y91.061 E11.12172
G1 X109.658 Y91.129 E11.14088
G1 X109.909 Y91.208 E11.15401
G1 X110.176 Y91.319 E11.16844
G1 X110.43 Y91.457 E11.18286
G1 X110.599 Y91.567 E11.19292
G1 X110.839 Y91.753 E11.20807
G1 X111.071 Y91.966 E11.22378
G1 X111.266 Y92.179 E11.23819
G1 X111.449 Y92.414 E11.25305
G1 X111.642 Y92.697 E11.27014
G1 X111.818 Y93.002 E11.2877
G1 X111.978 Y93.334 E11.30609
G1 X112.1 Y93.626 E11.32188
G1 X112.246 Y94.035 E11.34355
G1 X112.365 Y94.444 E11.3648
G1 X112.464 Y94.883 E11.38725
G1 X112.538 Y95.316 E11.40916
G1 X112.596 Y95.79 E11.43299
G1 X112.63 Y96.353 E11.46113
G1 X112.637 Y96.574 E11.47216
G1 X112.628 Y97.12 E11.4994
G1 X112.592 Y97.63 E11.52491
G1 X112.54 Y98.033 E11.54518
G1 X112.429 Y98.653 E11.57661
G1 X112.297 Y99.165 E11.60299
G1 X112.11 Y99.72 E11.6322
G1 X111.956 Y100.082 E11.65183
G1 X111.748 Y100.492 E11.67477
G1 X111.536 Y100.834 E11.69484
G1 X111.382 Y101.044 E11.70783
G1 X111.171 Y101.293 E11.72412
G1 X110.932 Y101.534 E11.74105
G1 X110.694 Y101.731 E11.75647
G1 X110.409 Y101.925 E11.77367
G1 X110.155 Y102.059 E11.78799
G1 X109.916 Y102.158 E11.8009
G1 X109.814 Y102.192 E11.80626
G1 X109.536 Y102.265 E11.8206
G0 F2400 X109.339 Y102.296
G0 X109.186 Y101.521
;TYPE:SKIN
G1 F1500 X108.99 Y101.53 E11.83039
G1 X108.831 Y101.521 E11.83834
G1 X108.673 Y101.502 E11.84628
G1 X108.492 Y101.46 E11.85555
G1 X108.314 Y101.399 E11.86493
G1 X108.037 Y101.267 E11.88024
G1 X107.845 Y101.144 E11.89162
G1 X107.689 Y101.025 E11.90141
G1 X107.494 Y100.845 E11.91465
G1 X107.307 Y100.64 E11.92849
G1 X107.177 Y100.47 E11.93917
G1 X106.944 Y100.108 E11.96064
G1 X106.795 Y99.82 E11.97682
G1 X106.672 Y99.545 E11.99185
G1 X106.569 Y99.275 E12.00627
G1 X106.431 Y98.838 E12.02913
G1 X106.361 Y98.56 E12.04343
G1 X106.272 Y98.123 E12.06568
G1 X106.211 Y97.694 E12.0873
G1 X106.176 Y97.308 E12.10664
G1 X106.153 Y96.79 E12.13251
G1 X106.159 Y96.325 E12.15571
G1 X106.2 Y95.77 E12.18347
G1 X106.266 Y95.285 E12.20789
G1 X106.35 Y94.858 E12.2296
G1 X106.468 Y94.401 E12.25315
G1 X106.604 Y93.991 E12.2747
G1 X106.743 Y93.659 E12.29266
G1 X106.936 Y93.274 E12.31415
G1 X107.079 Y93.04 E12.32783
G1 X107.283 Y92.76 E12.34511
G1 X107.483 Y92.533 E12.3602
G1 X107.665 Y92.363 E12.37263
G1 X107.842 Y92.224 E12.38386
G1 X108.049 Y92.094 E12.39605
G1 X108.249 Y91.995 E12.40719
G1 X108.434 Y91.925 E12.41705
G1 X108.615 Y91.879 E12.42637
G1 X108.8 Y91.85 E12.43571
G1 X108.999 Y91.839 E12.44566
G1 X109.195 Y91.848 E12.45545
G1 X109.47 Y91.898 E12.46939
G1 X109.643 Y91.953 E12.47845
G1 X109.831 Y92.031 E12.4886
G1 X110.03 Y92.139 E12.4999
G1 X110.136 Y92.208 E12.50621
G1 X110.316 Y92.346 E12.51752
G1 X110.522 Y92.537 E12.53154
G1 X110.654 Y92.679 E12.54121
G1 X110.825 Y92.9 E12.55515
G1 X110.965 Y93.104 E12.5675
G1 X111.118 Y93.369 E12.58276
G1 X111.258 Y93.659 E12.59883
G1 X111.356 Y93.891 E12.61139
G1 X111.495 Y94.28 E12.632
G1 X111.598 Y94.633 E12.65035
G1 X111.69 Y95.037 E12.67102
G1 X111.753 Y95.412 E12.68999
G1 X111.809 Y95.862 E12.71261
G1 X111.847 Y96.581 E12.74854
G1 X111.838 Y97.077 E12.77329
G1 X111.806 Y97.552 E12.79704
G1 X111.76 Y97.906 E12.81485
G1 X111.657 Y98.483 E12.84409
G1 X111.541 Y98.936 E12.86742
G1 X111.374 Y99.432 E12.89353
G1 X111.241 Y99.745 E12.91049
G1 X111.057 Y100.108 E12.9308
G1 X110.883 Y100.388 E12.94725
