;FLAVOR:Marlin
;TIME:1532
;Filament used: 1.76116m
;Layer height: 0.2
;Generated with Cura_SteamEngine 3.2.1
M190 S50
M104 S200
M109 S200
M82 ;absolute extrusion mode
G28 ;Home
G1 Z15.0 F6000 ;Move the platform down 15mm
;Prime the extruder
G92 E0
G1 F200 E3
G92 E0
;LAYER_COUNT:127
;LAYER:0
M107
G0 F2400 X90.904 Y86.747 Z0.3
;TYPE:SKIRT
G1 F1500 X91.787 Y85.871 E0.06205
G1 X92.375 Y85.344 E0.10145
G1 X93.33 Y84.682 E0.15942
G1 X93.788 Y84.413 E0.18592
G1 X94.488 Y84.048 E0.22531
G1 X95.58 Y83.644 E0.28339
G1 X96.542 Y83.367 E0.33334
G1 X97.311 Y83.187 E0.37274
G1 X98.094 Y83.086 E0.41213
G1 X98.7 Y83.062 E0.44239
G1 X99.298 Y83.062 E0.47222
G1 X100.087 Y83.102 E0.51163
G1 X100.906 Y83.229 E0.55298
G1 X101.471 Y83.348 E0.58179
G1 X102.234 Y83.55 E0.62117
G1 X102.936 Y83.812 E0.65855
G1 X103.496 Y84.052 E0.68895
G1 X104.003 Y84.3 E0.7171
G1 X104.489 Y84.06 E0.74415
G1 X105.053 Y83.817 E0.77478
G1 X105.793 Y83.541 E0.81419
G1 X106.56 Y83.341 E0.85373
G1 X107.131 Y83.223 E0.88282
G1 X107.912 Y83.103 E0.92224
G1 X108.71 Y83.062 E0.96211
G1 X109.299 Y83.062 E0.99149
G1 X110.088 Y83.102 E1.03091
G1 X110.868 Y83.221 E1.07027
G1 X111.441 Y83.362 E1.09971
G1 X112.404 Y83.637 E1.14968
G1 X113.151 Y83.892 E1.18906
G1 X113.869 Y84.221 E1.22846
G1 X114.546 Y84.619 E1.26764
G1 X115.252 Y85.083 E1.30979
G1 X115.889 Y85.549 E1.34916
G1 X116.483 Y86.086 E1.38911
G1 X116.939 Y86.542 E1.42129
G1 X117.469 Y87.128 E1.46071
G1 X117.936 Y87.764 E1.50007
G1 X118.178 Y88.155 E1.52301
G1 X119.04 Y89.647 E1.60898
G1 X119.4 Y90.35 E1.64838
G1 X119.78 Y91.386 E1.70344
G1 X120.155 Y92.685 E1.77089
G1 X120.335 Y93.453 E1.81024
G1 X120.421 Y94.058 E1.84073
G1 X120.597 Y95.787 E1.92744
G1 X120.63 Y96.917 E1.98384
G1 X120.583 Y97.995 E2.03767
G1 X120.493 Y98.881 E2.0821
G1 X120.326 Y99.93 E2.13509
G1 X120.093 Y100.948 E2.1872
G1 X119.764 Y102.043 E2.24424
G1 X119.35 Y103.123 E2.30194
G1 X118.976 Y103.917 E2.34573
G1 X118.42 Y104.904 E2.40225
G1 X118.036 Y105.483 E2.43691
G1 X117.567 Y106.118 E2.47629
G1 X117.285 Y106.444 E2.4978
G1 X116.821 Y106.95 E2.53205
G1 X116.258 Y107.504 E2.57146
G1 X115.44 Y108.14 E2.62315
G1 X114.613 Y108.699 E2.67295
G1 X113.937 Y109.108 E2.71237
G1 X113.224 Y109.446 E2.75174
G1 X112.365 Y109.743 E2.79708
G1 X111.409 Y110.013 E2.84664
G1 X110.639 Y110.189 E2.88605
G1 X109.855 Y110.286 E2.92546
G1 X109.019 Y110.302 E2.96718
G1 X108.239 Y110.275 E3.00611
G1 X107.452 Y110.208 E3.04552
G1 X106.676 Y110.062 E3.08491
G1 X105.804 Y109.796 E3.1304
G1 X104.825 Y109.434 E3.18247
G1 X104.099 Y109.123 E3.22187
G1 X103.999 Y109.068 E3.22757
G1 X103.857 Y109.15 E3.23575
G1 X103.106 Y109.487 E3.27682
G1 X102.584 Y109.689 E3.30474
G1 X101.834 Y109.937 E3.34415
G1 X101.097 Y110.101 E3.38182
G1 X100.524 Y110.2 E3.41083
G1 X99.74 Y110.295 E3.45023
G1 X98.95 Y110.31 E3.48965
G1 X98.097 Y110.236 E3.53237
G1 X96.916 Y110.068 E3.59188
G1 X96.141 Y109.918 E3.63126
G1 X95.385 Y109.689 E3.67067
G1 X94.314 Y109.212 E3.72916
G1 X93.52 Y108.784 E3.77417
G1 X92.845 Y108.375 E3.81354
G1 X91.987 Y107.701 E3.86797
G1 X91.45 Y107.215 E3.90411
G1 X90.892 Y106.656 E3.94351
G1 X90.563 Y106.266 E3.96897
G1 X90.176 Y105.776 E4.00012
G1 X89.718 Y105.133 E4.03951
G1 X89.487 Y104.745 E4.06203
G1 X89.057 Y103.975 E4.10603
G1 X88.707 Y103.267 E4.14544
G1 X88.464 Y102.63 E4.17945
G1 X87.971 Y101.145 E4.25751
G1 X87.761 Y100.384 E4.2969
G1 X87.671 Y99.911 E4.32092
G1 X87.507 Y98.879 E4.37305
G1 X87.422 Y98.094 E4.41245
G1 X87.41 Y97.676 E4.43331
G1 X87.405 Y95.8 E4.5269
G1 X87.443 Y95.011 E4.56631
G1 X87.517 Y94.464 E4.59385
G1 X87.753 Y93.084 E4.6637
G1 X87.925 Y92.314 E4.70306
G1 X88.145 Y91.64 E4.73843
G1 X88.707 Y90.154 E4.81769
G1 X89.024 Y89.43 E4.85713
G1 X89.393 Y88.772 E4.89476
G1 X89.787 Y88.143 E4.93179
G1 X90.239 Y87.496 E4.97117
G1 X90.904 Y86.747 E5.02114
G0 F2400 X91.185 Y87.031
G1 F1500 X92.068 Y86.155 E5.08319
G1 X92.642 Y85.642 E5.1216
G1 X93.532 Y85.027 E5.17557
G1 X93.99 Y84.758 E5.20207
G1 X94.673 Y84.404 E5.24045
G1 X95.69 Y84.028 E5.29455
G1 X96.652 Y83.751 E5.34449
G1 X97.402 Y83.577 E5.3829
G1 X98.165 Y83.481 E5.42127
G1 X98.7 Y83.462 E5.44798
G1 X99.298 Y83.462 E5.47781
G1 X100.066 Y83.502 E5.51618
G1 X100.823 Y83.621 E5.55441
G1 X101.388 Y83.74 E5.58322
G1 X102.132 Y83.937 E5.62161
G1 X102.778 Y84.179 E5.65603
G1 X103.338 Y84.419 E5.68643
G1 X104.001 Y84.745 E5.72328
G1 X104.647 Y84.427 E5.75921
G1 X105.211 Y84.184 E5.78985
G1 X105.932 Y83.917 E5.8282
G1 X106.641 Y83.733 E5.86475
G1 X107.212 Y83.615 E5.89384
G1 X107.973 Y83.499 E5.93224
G1 X108.71 Y83.462 E5.96906
G1 X109.299 Y83.462 E5.99844
G1 X110.067 Y83.502 E6.03681
G1 X110.827 Y83.621 E6.07519
G1 X111.331 Y83.746 E6.1011
G1 X112.294 Y84.021 E6.15106
G1 X113.022 Y84.271 E6.18946
G1 X113.719 Y84.594 E6.22779
G1 X114.326 Y84.953 E6.26297
G1 X115.032 Y85.417 E6.30512
G1 X115.652 Y85.872 E6.34349
G1 X116.201 Y86.368 E6.3804
G1 X116.657 Y86.824 E6.41257
G1 X117.171 Y87.396 E6.45094
G1 X117.624 Y88.018 E6.48933
G1 X117.831 Y88.355 E6.50906
G1 X118.693 Y89.847 E6.59503
G1 X119.043 Y90.532 E6.6334
G1 X119.396 Y91.497 E6.68467
G1 X119.771 Y92.796 E6.75212
G1 X119.945 Y93.545 E6.79048
G1 X120.023 Y94.099 E6.8184
G1 X120.199 Y95.828 E6.9051
G1 X120.23 Y96.899 E6.95856
G1 X120.183 Y97.977 E7.01239
G1 X120.098 Y98.818 E7.05456
G1 X119.931 Y99.867 E7.10756
G1 X119.71 Y100.833 E7.15699
G1 X119.381 Y101.928 E7.21404
G1 X118.989 Y102.952 E7.26874
G1 X118.615 Y103.746 E7.31253
G1 X118.087 Y104.683 E7.36619
G1 X117.703 Y105.262 E7.40085
G1 X117.245 Y105.88 E7.43922
G1 X116.99 Y106.173 E7.4586
G1 X116.526 Y106.679 E7.49285
G1 X115.977 Y107.218 E7.53124
G1 X115.216 Y107.809 E7.57931
G1 X114.389 Y108.368 E7.62911
G1 X113.73 Y108.765 E7.66749
G1 X113.034 Y109.091 E7.70584
G1 X112.256 Y109.358 E7.74687
G1 X111.3 Y109.628 E7.79643
G1 X110.55 Y109.799 E7.83481
G1 X109.787 Y109.89 E7.87315
G1 X109.033 Y109.903 E7.91077
G1 X108.253 Y109.876 E7.94971
G1 X107.487 Y109.809 E7.98807
G1 X106.731 Y109.663 E8.02648
G1 X105.943 Y109.421 E8.06761
G1 X104.964 Y109.059 E8.11968
G1 X104.257 Y108.755 E8.15808
G1 X104.001 Y108.604 E8.17291
G1 X103.656 Y108.803 E8.19278
G1 X102.962 Y109.114 E8.23072
G1 X102.44 Y109.316 E8.25864
G1 X101.709 Y109.556 E8.29703
G1 X101.029 Y109.707 E8.33178
G1 X100.456 Y109.806 E8.36079
G1 X99.692 Y109.897 E8.39917
G1 X98.923 Y109.909 E8.43755
G1 X98.154 Y109.84 E8.47606
G1 X96.973 Y109.672 E8.53558
G1 X96.218 Y109.524 E8.57396
G1 X95.483 Y109.299 E8.61231
G1 X94.504 Y108.86 E8.66584
G1 X93.71 Y108.432 E8.71084
G1 X93.053 Y108.032 E8.74922
G1 X92.255 Y107.405 E8.79985
G1 X91.718 Y106.919 E8.83598
G1 X91.176 Y106.374 E8.87433
G1 X90.877 Y106.019 E8.89748
G1 X90.49 Y105.529 E8.92864
G1 X90.045 Y104.901 E8.96704
G1 X89.836 Y104.55 E8.98742
G1 X89.406 Y103.78 E9.03142
G1 X89.067 Y103.09 E9.06977
G1 X88.844 Y102.504 E9.10105
G1 X88.351 Y101.019 E9.17911
G1 X88.147 Y100.277 E9.21751
G1 X88.066 Y99.848 E9.23929
G1 X87.902 Y98.816 E9.29142
G1 X87.81 Y97.675 E9.34853
G1 X87.805 Y95.799 E9.44212
G1 X87.843 Y95.031 E9.48049
G1 X87.911 Y94.532 E9.50561
G1 X88.147 Y93.152 E9.57546
G1 X88.316 Y92.401 E9.61386
G1 X88.519 Y91.781 E9.64641
G1 X89.081 Y90.295 E9.72567
G1 X89.391 Y89.591 E9.76405
G1 X89.732 Y88.985 E9.79874
G1 X90.126 Y88.356 E9.83577
G1 X90.567 Y87.726 E9.87414
G1 X91.185 Y87.031 E9.92054
G0 F2400 X91.467 Y87.315
G1 F1500 X92.35 Y86.439 E9.98259
G1 X92.908 Y85.941 E10.0199
G1 X93.735 Y85.372 E10.06999
G1 X94.193 Y85.103 E10.09648
G1 X94.857 Y84.759 E10.13379
G1 X95.801 Y84.412 E10.18397
G1 X96.763 Y84.135 E10.23392
G1 X97.492 Y83.967 E10.27124
G1 X98.235 Y83.877 E10.30858
G1 X98.7 Y83.862 E10.33179
G1 X99.298 Y83.862 E10.36162
G1 X100.045 Y83.902 E10.39894
G1 X100.741 Y84.012 E10.4341
G1 X101.306 Y84.131 E10.46291
G1 X102.028 Y84.324 E10.50019
G1 X102.62 Y84.547 E10.53175
G1 X103.18 Y84.787 E10.56215
G1 X103.851 Y85.118 E10.59948
G1 X104.002 Y85.213 E10.60838
G1 X104.183 Y85.1 E10.61902
G1 X104.805 Y84.794 E10.65361
G1 X105.369 Y84.551 E10.68424
G1 X106.071 Y84.292 E10.72157
G1 X106.722 Y84.125 E10.7551
G1 X107.293 Y84.007 E10.78419
G1 X108.033 Y83.895 E10.82153
G1 X108.71 Y83.862 E10.85535
G1 X109.299 Y83.862 E10.88473
G1 X110.046 Y83.902 E10.92206
G1 X110.784 Y84.021 E10.95935
G1 X111.221 Y84.131 E10.98183
G1 X112.184 Y84.406 E11.0318
G1 X112.891 Y84.65 E11.06911
G1 X113.569 Y84.967 E11.10645
G1 X114.107 Y85.287 E11.13768
G1 X114.813 Y85.751 E11.17983
G1 X115.415 Y86.195 E11.21715
G1 X115.918 Y86.651 E11.25102
G1 X116.374 Y87.107 E11.28319
G1 X116.874 Y87.664 E11.32054
G1 X117.485 Y88.555 E11.37444
G1 X118.347 Y90.047 E11.4604
G1 X118.686 Y90.714 E11.49773
G1 X119.011 Y91.607 E11.54514
G1 X119.386 Y92.906 E11.6126
G1 X119.555 Y93.635 E11.64993
G1 X119.625 Y94.139 E11.67532
G1 X119.801 Y95.868 E11.76202
G1 X119.83 Y96.882 E11.81263
G1 X119.783 Y97.96 E11.86646
G1 X119.703 Y98.756 E11.90638
G1 X119.536 Y99.805 E11.95937
G1 X119.327 Y100.718 E12.0061
G1 X118.998 Y101.813 E12.06314
G1 X118.627 Y102.782 E12.11491
G1 X118.253 Y103.576 E12.15869
G1 X117.754 Y104.462 E12.20943
G1 X117.37 Y105.041 E12.24409
G1 X116.695 Y105.903 E12.29871
G1 X116.231 Y106.409 E12.33296
G1 X115.697 Y106.933 E12.37029
G1 X114.992 Y107.477 E12.41471
G1 X114.165 Y108.036 E12.46451
G1 X113.524 Y108.422 E12.50184
G1 X112.845 Y108.736 E12.53917
G1 X112.148 Y108.973 E12.57589
G1 X111.192 Y109.243 E12.62545
G1 X110.462 Y109.408 E12.66279
G1 X109.719 Y109.494 E12.70011
G1 X109.047 Y109.503 E12.73364
G1 X108.267 Y109.476 E12.77258
G1 X107.522 Y109.41 E12.80989
G1 X106.788 Y109.265 E12.84722
G1 X106.081 Y109.046 E12.88414
G1 X105.102 Y108.684 E12.93622
G1 X104.416 Y108.387 E12.97351
G1 X104.002 Y108.142 E12.99751
G1 X103.456 Y108.457 E13.02896
G1 X102.817 Y108.741 E13.06385
G1 X102.295 Y108.943 E13.09177
G1 X101.584 Y109.176 E13.1291
G1 X100.961 Y109.313 E13.16092
G1 X100.388 Y109.412 E13.18993
G1 X99.645 Y109.5 E13.22726
G1 X98.897 Y109.508 E13.26458
G1 X98.21 Y109.444 E13.29901
G1 X97.029 Y109.276 E13.35852
G1 X96.295 Y109.131 E13.39585
G1 X95.581 Y108.909 E13.43315
G1 X94.694 Y108.508 E13.48171
G1 X93.9 Y108.08 E13.52672
G1 X93.261 Y107.69 E13.56406
G1 X92.524 Y107.108 E13.61092
G1 X91.987 Y106.622 E13.64705
G1 X91.46 Y106.091 E13.68437
G1 X91.191 Y105.771 E13.70523
G1 X90.804 Y105.281 E13.73638
G1 X90.185 Y104.355 E13.79195
G1 X89.755 Y103.585 E13.83595
G1 X89.426 Y102.913 E13.87328
G1 X89.224 Y102.378 E13.90181
G1 X88.731 Y100.893 E13.97987
G1 X88.533 Y100.171 E14.01722
G1 X88.461 Y99.786 E14.03676
G1 X88.297 Y98.754 E14.0889
G1 X88.21 Y97.674 E14.14295
G1 X88.205 Y95.798 E14.23655
G1 X88.243 Y95.051 E14.27386
G1 X88.305 Y94.599 E14.29662
G1 X88.541 Y93.219 E14.36647
G1 X88.706 Y92.489 E14.40381
G1 X88.894 Y91.923 E14.43357
G1 X89.456 Y90.437 E14.51283
G1 X89.757 Y89.752 E14.55016
G1 X90.071 Y89.197 E14.58197
G1 X90.465 Y88.568 E14.619
G1 X90.895 Y87.956 E14.65631
G1 X91.467 Y87.315 E14.69918
G0 F2400 X91.749 Y87.599
G1 F1500 X92.632 Y86.723 E14.76123
G1 X93.175 Y86.24 E14.79749
G1 X93.937 Y85.717 E14.8436
G1 X94.395 Y85.448 E14.8701
G1 X95.041 Y85.115 E14.90635
G1 X95.912 Y84.797 E14.95261
G1 X96.874 Y84.52 E15.00256
G1 X97.582 Y84.357 E15.0388
G1 X98.303 Y84.274 E15.07501
G1 X98.7 Y84.262 E15.09483
G1 X99.298 Y84.262 E15.12466
G1 X100.023 Y84.302 E15.16089
G1 X100.658 Y84.404 E15.19297
G1 X101.223 Y84.523 E15.22178
G1 X101.925 Y84.711 E15.25804
G1 X102.463 Y84.915 E15.28674
G1 X103.023 Y85.155 E15.31714
G1 X103.674 Y85.477 E15.35337
G1 X104.002 Y85.685 E15.37275
G1 X104.396 Y85.439 E15.39593
G1 X104.963 Y85.162 E15.42741
G1 X105.527 Y84.919 E15.45805
G1 X106.209 Y84.668 E15.4943
G1 X106.803 Y84.517 E15.52488
G1 X107.374 Y84.399 E15.55397
G1 X108.093 Y84.291 E15.59024
G1 X108.71 Y84.262 E15.62106
G1 X109.299 Y84.262 E15.65044
G1 X110.024 Y84.302 E15.68667
G1 X110.741 Y84.421 E15.72293
G1 X111.111 Y84.516 E15.74199
G1 X112.074 Y84.791 E15.79195
G1 X112.761 Y85.028 E15.82821
G1 X113.417 Y85.34 E15.86445
G1 X113.887 Y85.622 E15.8918
G1 X114.593 Y86.086 E15.93395
G1 X115.177 Y86.517 E15.97016
G1 X115.635 Y86.934 E16.00106
G1 X116.091 Y87.39 E16.03323
G1 X116.575 Y87.931 E16.06945
G1 X117.139 Y88.755 E16.11926
G1 X118.001 Y90.247 E16.20523
G1 X118.329 Y90.895 E16.24147
G1 X118.627 Y91.718 E16.28513
G1 X119.002 Y93.017 E16.35259
G1 X119.165 Y93.725 E16.38883
G1 X119.227 Y94.18 E16.41174
G1 X119.403 Y95.909 E16.49845
G1 X119.431 Y96.864 E16.54612
G1 X119.384 Y97.942 E16.59995
G1 X119.308 Y98.693 E16.63761
G1 X119.141 Y99.742 E16.6906
G1 X118.944 Y100.603 E16.73467
G1 X118.615 Y101.698 E16.79171
G1 X118.265 Y102.611 E16.84049
G1 X117.891 Y103.405 E16.88428
G1 X117.42 Y104.241 E16.93215
G1 X117.036 Y104.82 E16.96681
G1 X116.4 Y105.633 E17.01831
G1 X115.936 Y106.139 E17.05256
G1 X115.417 Y106.646 E17.08876
G1 X114.768 Y107.146 E17.12963
G1 X113.941 Y107.705 E17.17943
G1 X113.318 Y108.078 E17.21566
G1 X112.657 Y108.38 E17.25191
G1 X112.039 Y108.589 E17.28446
G1 X111.083 Y108.859 E17.33402
G1 X110.374 Y109.017 E17.37026
G1 X109.652 Y109.097 E17.4065
G1 X109.061 Y109.103 E17.43599
G1 X108.281 Y109.076 E17.47493
G1 X107.557 Y109.011 E17.51119
G1 X106.845 Y108.867 E17.54744
G1 X106.22 Y108.67 E17.58013
G1 X105.241 Y108.308 E17.6322
G1 X104.575 Y108.019 E17.66842
G1 X103.998 Y107.675 E17.70194
G1 X103.886 Y107.748 E17.70861
G1 X103.256 Y108.109 E17.74483
G1 X102.673 Y108.368 E17.77666
G1 X102.151 Y108.57 E17.80459
G1 X101.46 Y108.795 E17.84084
G1 X100.893 Y108.919 E17.8698
G1 X100.32 Y109.018 E17.89881
G1 X99.598 Y109.102 E17.93507
G1 X98.872 Y109.106 E17.97129
G1 X98.266 Y109.048 E18.00166
G1 X97.085 Y108.88 E18.06118
G1 X96.373 Y108.739 E18.09739
G1 X95.681 Y108.519 E18.13362
G1 X94.883 Y108.156 E18.17735
G1 X94.089 Y107.728 E18.22235
G1 X93.47 Y107.348 E18.25859
G1 X92.792 Y106.811 E18.30174
G1 X92.255 Y106.325 E18.33788
G1 X91.744 Y105.809 E18.37411
G1 X91.505 Y105.523 E18.3927
G1 X91.118 Y105.033 E18.42385
G1 X90.535 Y104.16 E18.47623
G1 X90.105 Y103.39 E18.52023
G1 X89.786 Y102.737 E18.55648
G1 X89.603 Y102.252 E18.58235
G1 X89.11 Y100.767 E18.66041
G1 X88.856 Y99.723 E18.71401
G1 X88.692 Y98.691 E18.76615
G1 X88.61 Y97.673 E18.8171
G1 X88.605 Y95.797 E18.91069
G1 X88.643 Y95.071 E18.94696
G1 X88.699 Y94.666 E18.96736
G1 X88.935 Y93.286 E19.03721
G1 X89.097 Y92.578 E19.07344
G1 X89.268 Y92.064 E19.10047
G1 X89.83 Y90.578 E19.17973
G1 X90.124 Y89.914 E19.21596
G1 X90.41 Y89.409 E19.24491
G1 X90.804 Y88.78 E19.28194
G1 X91.223 Y88.187 E19.31817
G1 X91.749 Y87.599 E19.35753
G0 F2400 X92.03 Y87.883
G1 F1500 X92.913 Y87.007 E19.41958
G1 X93.441 Y86.54 E19.45475
G1 X94.14 Y86.062 E19.497
G1 X94.598 Y85.793 E19.5235
G1 X95.224 Y85.471 E19.55862
G1 X96.022 Y85.181 E19.60098
G1 X96.984 Y84.904 E19.65092
G1 X97.671 Y84.748 E19.68607
G1 X98.7 Y84.662 E19.73758
G1 X99.298 Y84.662 E19.76742
G1 X100.001 Y84.702 E19.80255
G1 X100.576 Y84.795 E19.83161
G1 X101.141 Y84.914 E19.86041
G1 X101.82 Y85.098 E19.89551
G1 X102.305 Y85.282 E19.92139
G1 X102.865 Y85.522 E19.95179
G1 X103.496 Y85.836 E19.98695
G1 X103.992 Y86.151 E20.01626
G1 X104 Y86.157 E20.01676
G1 X104.009 Y86.151 E20.0173
G1 X104.607 Y85.779 E20.05244
G1 X105.122 Y85.529 E20.081
G1 X105.686 Y85.286 E20.11164
G1 X106.347 Y85.045 E20.14674
G1 X106.884 Y84.908 E20.17439
G1 X107.455 Y84.79 E20.20348
G1 X108.152 Y84.687 E20.23863
G1 X108.71 Y84.662 E20.2665
G1 X109.299 Y84.662 E20.29588
G1 X110.002 Y84.702 E20.33101
G1 X111.001 Y84.9 E20.38182
G1 X111.964 Y85.175 E20.43178
G1 X112.629 Y85.407 E20.46692
G1 X113.264 Y85.712 E20.50207
G1 X113.667 Y85.956 E20.52557
G1 X114.373 Y86.42 E20.56772
G1 X114.939 Y86.839 E20.60285
G1 X115.352 Y87.217 E20.63079
G1 X115.808 Y87.673 E20.66296
G1 X116.277 Y88.198 E20.69808
G1 X116.792 Y88.955 E20.74376
G1 X117.654 Y90.447 E20.82973
G1 X117.971 Y91.076 E20.86487
G1 X118.243 Y91.829 E20.90481
G1 X118.618 Y93.128 E20.97226
G1 X118.774 Y93.815 E21.00741
G1 X118.829 Y94.22 E21.0278
G1 X119.005 Y95.949 E21.11451
G1 X119.031 Y96.847 E21.15933
G1 X118.984 Y97.925 E21.21316
G1 X118.913 Y98.63 E21.24851
G1 X118.746 Y99.679 E21.3015
G1 X118.561 Y100.488 E21.34291
G1 X118.232 Y101.583 E21.39995
G1 X117.903 Y102.441 E21.44579
